app/dist/common/images/comsys-holdings.svg

<svg fill="none" height="18" viewBox="0 0 18 18" width="18" xmlns="http://www.w3.org/2000/svg"><path d="m0 0h18v18h-18z" fill="#f0f3fa"/><path d="m4 9.4288c0-2.66623 1.51629-4.37827 2.27444-4.90102-1.02486 1.28994-1.27125 2.77596-1.26634 3.35772 0 4.3514 3.59603 4.7529 4.183 4.7529.46958 0 .65693-.0872.8089-.1308v2.3297c-.33281.1445-.85722.1681-1.19481.1618-2.29486 0-4.80519-2.2375-4.80519-5.5703z" fill="#00aebb"/><path d="m5.54551 8.05741c0-2.65576 2.00089-4.13552 3.00134-4.54343-.57168.42527-1.71505 1.65594-1.71505 3.17649 0 2.31728 1.83415 2.85104 2.64403 2.85104.64787 0 1.36137-.22565 1.52417-.33848v2.40837c-.5002.2604-1.38125.3646-2.06012.3646s-3.39437-.5989-3.39437-3.91859z" fill="#00a041"/><path d="m7.3622 6.69538c0 .90738.43887 1.49198.6583 1.67085-.02549-.11019-.07646-.38895-.07646-.62245 0-1.93574 1.82922-2.38788 2.79116-2.38788.7696 0 1.0012.28814 1.2648.43221v-2.67713c-.288-.07741-.3118-.10624-.5318-.11098-2.61088 0-4.106 2.41468-4.106 3.69538z" fill="#e8380d"/><path d="m9.5 6.4172v2.24144c.20422-.12667.6783-.38 1.4044-.38 1.8213 0 2.1155 1.92296 2.1155 2.86746 0 .7556-.2375 1.5256-.3563 1.8161.0085.0055.0254.0208.0254.0378 1.0305-1.1288 1.3034-2.7158 1.311-3.36816 0-3.06391-2.3327-3.63184-3.1917-3.63184-.6872 0-1.11992.27813-1.3083.4172z" fill="#f39700"/><path d="m11 14.6651v-2.3185c.0614-.0536 1.0883-.6821.9718-2.69858l.0222-.01252c.1412.20451.4235.8412.4235 1.7517 0 1.955-.8758 3.0119-1.4175 3.2779z" fill="#4c4398"/></svg>

<!-- by TradingView --><svg width="18" height="18" viewBox="0 0 18 18" fill="none" xmlns="http://www.w3.org/2000/svg">
<rect width="18" height="18" fill="#F0F3FA"/>
<path d="M4 9.4288C4 6.76257 5.51629 5.05053 6.27444 4.52778C5.24958 5.81772 5.00319 7.30374 5.0081 7.8855C5.0081 12.2369 8.60413 12.6384 9.1911 12.6384C9.66068 12.6384 9.84803 12.5512 10 12.5076V14.8373C9.66719 14.9818 9.14278 15.0054 8.80519 14.9991C6.51033 14.9991 4 12.7616 4 9.4288Z" fill="#00AEBB"/>
<path d="M5.54551 8.05741C5.54551 5.40165 7.5464 3.92189 8.54685 3.51398C7.97517 3.93925 6.8318 5.16992 6.8318 6.69047C6.8318 9.00775 8.66595 9.54151 9.47583 9.54151C10.1237 9.54151 10.8372 9.31586 11 9.20303V11.6114C10.4998 11.8718 9.61875 11.976 8.93988 11.976C8.26101 11.976 5.54551 11.3771 5.54551 8.05741Z" fill="#00A041"/>
<path d="M7.3622 6.69538C7.3622 7.60276 7.80107 8.18736 8.0205 8.36623C7.99501 8.25604 7.94404 7.97728 7.94404 7.74378C7.94404 5.80804 9.77326 5.3559 10.7352 5.3559C11.5048 5.3559 11.7364 5.64404 12 5.78811V3.11098C11.712 3.03357 11.6882 3.00474 11.4682 3C8.85732 3 7.3622 5.41468 7.3622 6.69538Z" fill="#E8380D"/>
<path d="M9.5 6.4172V8.65864C9.70422 8.53197 10.1783 8.27864 10.9044 8.27864C12.7257 8.27864 13.0199 10.2016 13.0199 11.1461C13.0199 11.9017 12.7824 12.6717 12.6636 12.9622C12.6721 12.9677 12.689 12.983 12.689 13C13.7195 11.8712 13.9924 10.2842 14 9.63184C14 6.56793 11.6673 6 10.8083 6C10.1211 6 9.68838 6.27813 9.5 6.4172Z" fill="#F39700"/>
<path d="M11 14.6651V12.3466C11.0614 12.293 12.0883 11.6645 11.9718 9.64802L11.994 9.6355C12.1352 9.84001 12.4175 10.4767 12.4175 11.3872C12.4175 13.3422 11.5417 14.3991 11 14.6651Z" fill="#4C4398"/>
</svg>
